X:1
T:Lord, in the morning thou shalt hear
T:Lord, in the morning thou shalt hear - Supplication (Thomas Clark)
C:Thomas Clark
Z:Text: Isaac Watts
%%score [ 1 2 3 4 ]
L:1/8
M:2/2
K:D
V:1 treble nm="SOPRANO" snm="S."
V:2 treble nm="ALTO" snm="A."
V:3 treble-8 transpose=-12 nm="TENOR" snm="T."
V:4 bass nm="BASS" snm="B."
V:1
 D4 F2 A2 | d4 A4 | F4 ^G4 | A4 z2 A2 | B6 c2 | d4 e4 | f8 | z4 f4 | e4 f4 | d6 c2 | %10
w: Thou art a|God be-|fore whose|sight The|wick- ed|shall not|stand;|Sin-|ners shall|ne’er be|
w: Lord, in the|morn- ing|thou shalt|hear My|voice as-|cend- ing|high:|To|thee will|I di-|
w: Up to the|hills where|Christ is|gone To|plead for|all his|saints,|Pre-|sent- ing|at his|
 (B2 cd) (c2 B2) | ^A4 z2 F2 | (B2 c2) (d2 e2) | d4 c4 | B8 | z4 d4 | A4 =c4 | B6 A2 | G4 F4 | %19
w: thy _ _ de- *|light, Nor|dwell _ at _|thy right|hand,|Sin-|ners shall|ne’er be|thy de-|
w: rect _ _ my _|pray’r, To|thee _ lift _|up mine|eye,|To|thee will|I di-|rect my|
w: Fa- * * ther’s _|throne Our|songs _ and _|our com-|plaints,|Pre-|sent- ing|at his|Fa- ther’s|
 E4 z2 G2 | (F2 A2) (B2 e2) | d4 c4 | d8 |] %23
w: light, Nor|dwell _ at _|thy right|hand.|
w: pray’r, To|thee _ lift _|up mine|eye.|
w: throne Our|songs _ and _|our com-|plaints.|
V:2
 D4 D2 E2 | F4 E4 | D4 D4 | E4 z2 F2 | D6 E2 | D4 A4 | A8 | z4 A4 | A4 F4 | F6 F2 | F4 G4 | %11
w: Thou art a|God be-|fore whose|sight The|wick- ed|shall not|stand;|Sin-|ners shall|ne’er be|thy de-|
w: Lord, in the|morn- ing|thou shalt|hear My|voice as-|cend- ing|high:|To|thee will|I di-|rect my|
w: Up to the|hills where|Christ is|gone To|plead for|all his|saints,|Pre-|sent- ing|at his|Fa- ther’s|
 F4 z2 F2 | F4 (F2 G2) | F4 F4 | F8 | z4 D4 | D4 D4 | D6 F2 | E4 ^D4 | E4 z2 E2 | D4 (D2 G2) | %21
w: light, Nor|dwell at _|thy right|hand,|Sin-|ners shall|ne’er be|thy de-|light, Nor|dwell at _|
w: pray’r, To|thee lift _|up mine|eye,|To|thee will|I di-|rect my|pray’r, To|thee lift _|
w: throne Our|songs and _|our com-|plaints,|Pre-|sent- ing|at his|Fa- ther’s|throne Our|songs and _|
 F4 E4 | F8 |] %23
w: thy right|hand.|
w: up mine|eye.|
w: our com-|plaints.|
V:3
 A4 A2 A2 | F4 A4 | A4 B4 | c4 z2 A2 | G6 G2 | A4 c4 | d8 | z4 d4 | c4 c4 | d6 ^A2 | B4 (e2 d2) | %11
w: Thou art a|God be-|fore whose|sight The|wick- ed|shall not|stand;|Sin-|ners shall|ne’er be|thy de- *|
w: Lord, in the|morn- ing|thou shalt|hear My|voice as-|cend- ing|high:|To|thee will|I di-|rect my _|
w: Up to the|hills where|Christ is|gone To|plead for|all his|saints,|Pre-|sent- ing|at his|Fa- ther’s _|
 c4 z2 c2 | (B2 ^A2) (B2 c2) | B4 ^A4 | B8 | z4 A4 | A4 F4 | G6 =c2 | B4 B4 | B4 z2 c2 | %20
w: light, Nor|dwell _ at _|thy right|hand,|Sin-|ners shall|ne’er be|thy de-|light, Nor|
w: pray’r, To|thee _ lift _|up mine|eye,|To|thee will|I di-|rect my|pray’r, To|
w: throne Our|songs _ and _|our com-|plaints,|Pre-|sent- ing|at his|Fa- ther’s|throne Our|
 (A2 F2) B4 | A4 A4 | A8 |] %23
w: dwell _ at|thy right|hand.|
w: thee _ lift|up mine|eye.|
w: songs _ and|our com-|plaints.|
V:4
 D,4 D,2"^6" C,2 | B,,4"^6" C,4 | D,4"^´" B,,4 | A,,4 z2 D,2 | G,6"^6" E,2 |"^6" F,4 A,4 | D,8 | %7
w: Thou art a|God be-|fore whose|sight The|wick- ed|shall not|stand;|
w: Lord, in the|morn- ing|thou shalt|hear My|voice as-|cend- ing|high:|
w: Up to the|hills where|Christ is|gone To|plead for|all his|saints,|
 z4 D,4 | A,4"^6" ^A,4 | B,6"^#" F,2 | B,4"^86""^75" E,4 |"^#" F,4 z2"^F2" E,2 | %12
w: Sin-|ners shall|ne’er be|thy de-|light, Nor|
w: To|thee will|I di-|rect my|pray’r, To|
w: Pre-|sent- ing|at his|Fa- ther’s|throne Our|
"^6" (D,2"^64" C,2) (B,,2"^6" E,2) |"^64" F,4"^5#" F,4 | B,,8 | %15
w: dwell _ at _|thy right|hand,|
w: thee _ lift _|up mine|eye,|
w: songs _ and _|our com-|plaints,|
"^Notes:The order of staves in the source is Tenor - [Alto] - Air - [Bass], with the alto part printed in the treble clef an octave abovesounding pitch.Only the first verse of text is given in the source: four subsequent verses have here been added editorially." z4"^6" F,4 | %16
w: Sin-|
w: To|
w: Pre-|
"^6" F,4"^U" D,4 | %17
w: ners shall|
w: thee will|
w: sent- ing|
 G,6"^O may thy Spirit guide my feetIn ways of righteousness!Make ev’ry path of duty straight,And plain before my face.""^6E" A,2 | %18
w: ne’er be|
w: I di-|
w: at his|
"^64" B,4"^5#" B,,4 | E,4 z2"^7" A,,2 | D,4"^5""^6" G,4 |"^64" A,4"^53" A,,4 | D,8 |] %23
w: thy de-|light, Nor|dwell at|thy right|hand.|
w: rect my|pray’r, To|thee lift|up mine|eye.|
w: Fa- ther’s|throne Our|songs and|our com-|plaints.|

